!!!COM: Bach, Johann Sebastian
!!!CDT: 1685/3//-1750/7/28/
!!!OTL@@DE: Hilf, Herr Jesu, lass gelingen
!!!AGN: 4-Part Chorale
!!!SCT: BH 368
!!!SCT: BWV 248
**harm	**root	**kern	**kern	**kern	**kern
*	*Iorgan	*Iorgan	*Iorgan	*Iorgan	*Iorgan
!	!	!bass	!tenor	!alto	!soprno
*M3/4	*M3/4	*M3/4	*M3/4	*M3/4	*M3/4
*MM60	*MM60	*MM60	*MM60	*MM60	*MM60
*k[f#c#g#d#a#]	*k[f#c#g#d#a#]	*k[f#c#g#d#a#]	*k[f#c#g#d#a#]	*k[f#c#g#d#a#]	*k[f#c#g#d#a#]
*B:	*B:	*B:	*B:	*B:	*B:
*>[A,A,B]	*>[A,A,B]	*>[A,A,B]	*>[A,A,B]	*>[A,A,B]	*>[A,A,B]
*>A	*>A	*>A	*>A	*>A	*>A
=1-	=1-	=1-	=1-	=1-	=1-
I	4FF	8B	4b	4dd#	4ff#
.	.	8c#	.	.	.
Ib	2FF	4d#	2f#	2b	2dd#
.	.	4B	.	.	.
=2	=2	=2	=2	=2	=2
V	2CC	2F#	4.f#	4b	2cc#
.	.	.	.	4a#	.
.	.	.	8e	.	.
vi	4DD	4G#	4d#	4b	4b
=3	=3	=3	=3	=3	=3
ii	4GG	8c#	2e	4g#	4ee
.	.	8B	.	.	.
v7b	4CC	4A	.	4cc#	4.ff#
I	4FF	4B	8d#	4b	.
.	.	.	16e	.	16gg#
.	.	.	16f#	.	16aa
=4	=4	=4	=4	=4	=4
IV	2.BB-	8E	4f#	2.b	2.gg#
.	.	8F#	.	.	.
.	.	4G#	8e	.	.
.	.	.	8d#	.	.
.	.	4E	4e	.	.
=5	=5	=5	=5	=5	=5
I;	2.FF;	2.B;	2.d#;	2.b;	2.ff#;
=6	=6	=6	=6	=6	=6
vi	4DD	4G#	4b	4dd#	4gg#
ii	2GG	4c#	2g#	2cc#	2ee
.	.	4B	.	.	.
=7	=7	=7	=7	=7	=7
Vb	4CC	4A#	8f#	4cc#	2ff#
.	.	.	8e	.	.
I	4FF	8B	4d#	4b	.
.	.	8A#	.	.	.
vi	4DD	8G#	4d#	4b	4b
.	.	8F#	.	.	.
=8	=8	=8	=8	=8	=8
IVb	8BB-	8G#	8g#	8b	4ee
V7b	8CC	8A#	8f#	8cc#	.
I	2FF	4B	2f#	4cc#	2dd#
.	.	4B	.	4b	.
=9	=9	=9	=9	=9	=9
V;	2.CC;	2.F#;	2.f#;	2.a#;	2.cc#;
*>B	*>B	*>B	*>B	*>B	*>B
!!linebreak: 2
=10:|!	=10:|!	=10:|!	=10:|!	=10:|!	=10:|!
V	4CC	8F#	2f#	8cc#	4aa#
.	.	8G#	.	8b	.
Vb	4CC	4A#	.	4cc#	2ff#
V	4CC	4F#	4a#	4cc#	.
=11	=11	=11	=11	=11	=11
I	2FF	8B	2f#	4cc#	2dd#
.	.	8A#	.	.	.
.	.	4B	.	4b	.
IV	4BB-	4e	[4e	4b	4gg#
=12	=12	=12	=12	=12	=12
viioD7	4EE	4A#	4e]	4cc#	4ff##
vib	4DD	4B	4d#	4dd#	4.gg#
IVb	8BB-	4G#	8g#	8ee	.
vi7	8DD	.	8f#	8dd#	16aa#
.	.	.	.	.	16bb
=13	=13	=13	=13	=13	=13
vii7d	4EE	4G#	4e	8cc#	2.aa#
.	.	.	.	8b	.
V7d/vi	4.AA	8F##	8d#	4.cc#	.
.	.	8E#	8c#	.	.
.	.	4F##	4d#	.	.
Vb/vi	8AA	.	.	8a#	.
=14	=14	=14	=14	=14	=14
vi;	2.DD;	2.G#;	2.d#;	2.b;	2.dd#;
=15	=15	=15	=15	=15	=15
IV	4BB-	8e	4.e	4b	4gg#
.	.	8d#	.	.	.
viib	4EE	4c#	.	4cc#	4aa#
.	.	.	8c#	.	.
I	4FF	4B	4f#	4dd#	4bb
=16	=16	=16	=16	=16	=16
Vb	4CC	8A#	2f#	8cc#	4ccc#
.	.	8G#	.	8b	.
Vb	4CC	4A#	.	4cc#	4ff#
V7	4CC	4F#	4c#	4a#	4ee
=17	=17	=17	=17	=17	=17
I	4FF	4B	2B	4f#	4dd#
IV	4BB-	2E	.	4e	4gg#
IV	4BB-	.	4g#	4b	4ee
=18	=18	=18	=18	=18	=18
V	4CC	8F#	4c#	4b	2.cc#
.	.	8E	.	.	.
V	2CC	2F#	4f#	8a#	.
.	.	.	.	8g#	.
.	.	.	4e	4a#	.
=19	=19	=19	=19	=19	=19
I;	2.FF;	2.BB;	2.d#;	2.f#;	2.b;
==	==	==	==	==	==
*-	*-	*-	*-	*-	*-
!!chor2scor: -l 2 -o %b.pmx
!!!YEC: Copyright 1994 by David Huron
!!!YEC: Changes/Additions 2001 by Craig Stuart Sapp
!!!YEN: United States of America
!!!SMA: 371 Bach Chorales, edited by Ludwig Erk, C.F. Peters
!!!PDT: 1850, 1865
!!!ONB: Harmony and Root analysis done manually
